src/categories-icons-sprite/categories/svg-cat-sport-command.svg

<svg width="33" height="32" viewBox="0 0 33 32" fill="none" xmlns="http://www.w3.org/2000/svg">
<path class="p-7C8388" d="M24.0225 28.0256L28.0261 24.022L32.0298 26.1282L26.1579 31.9999L24.0225 28.0256Z" fill="#5FBEFF"/>
<path class="p-575F64" d="M26.1579 32.0001L24.0225 28.0257L25.9558 25.9565L29.0789 29.0794L26.1579 32.0001Z" fill="#65B3E7"/>
<path class="p-FDBF00" d="M19.0667 23.1243C16.8872 20.9448 14.1346 19.0167 11.7059 17.3159C9.64421 15.8717 7.69678 14.508 6.37572 13.1869L1.40768 8.21938L1.40742 8.21913C-0.469184 6.34177 -0.469184 3.28675 1.40768 1.40889C3.28529 -0.467719 6.3403 -0.467719 8.21792 1.40914L13.1852 6.37718C14.498 7.68995 15.9092 9.67857 17.4033 11.784C19.1267 14.2126 21.0802 16.9655 23.1529 19.038L24.7256 20.611L20.6394 24.697L19.0667 23.1243Z" fill="#A1D1FD"/>
<path class="p-FF9100" d="M20.6394 24.6965L19.0667 23.1238C16.8872 20.9443 14.1346 19.0162 11.7059 17.3154C9.64421 15.8713 7.69678 14.5075 6.37572 13.1865L1.40768 8.21894L1.40743 8.21869C-0.469184 6.34133 -0.469184 3.28631 1.40768 1.40845L22.6677 22.6685L20.6394 24.6965Z" fill="#76B7E2"/>
<path class="p-575F64" d="M19.2773 23.3348L23.3636 19.2488L28.412 24.2979L24.326 28.3832L19.2773 23.3348Z" fill="#76B7E2"/>
<path class="p-32393F" d="M24.326 28.3829L19.2773 23.3344L21.3056 21.3064L26.3543 26.3551L24.326 28.3829Z" fill="#4D98CB"/>
<path class="p-7C8388" d="M6.76159 31.9999L0.889648 26.1282L4.89331 24.022L8.89697 28.0256L6.76159 31.9999Z" fill="#5FBEFF"/>
<path class="p-575F64" d="M6.76087 32.0001L8.89623 28.0257L6.96292 25.9565L3.83984 29.0794L6.76087 32.0001Z" fill="#65B3E7"/>
<path class="p-FFDA2D" d="M12.2796 24.6964L8.19336 20.6105L9.76607 19.0375C11.8388 16.965 13.7923 14.2121 15.5157 11.7835C17.0098 9.67805 18.421 7.68943 19.7338 6.37666L24.7011 1.40862C26.5787 -0.468238 29.6337 -0.468238 31.5113 1.40862C33.3882 3.28623 33.3882 6.34125 31.5116 8.21886H31.5113L26.5433 13.1864C25.2222 14.5075 23.2748 15.8712 21.2131 17.3153C18.7844 19.0161 16.0318 20.9442 13.8523 23.1237L12.2796 24.6964Z" fill="#B9DFFC"/>
<path class="p-FDBF00" d="M12.2803 24.6965L13.853 23.1238C16.0325 20.9443 18.7851 19.0162 21.2137 17.3154C23.2754 15.8713 25.2229 14.5075 26.5439 13.1865L31.512 8.21894C33.3886 6.34158 33.3888 3.28631 31.512 1.40845L10.252 22.6685L12.2803 24.6965Z" fill="#A1D1FD"/>
<path class="p-575F64" d="M8.59283 28.3832L4.50684 24.2979L9.55524 19.2488L13.6415 23.3348L8.59283 28.3832Z" fill="#76B7E2"/>
<path class="p-32393F" d="M8.59373 28.3829L13.6424 23.3345L11.6141 21.3064L6.56543 26.3551L8.59373 28.3829Z" fill="#4D98CB"/>
<path class="p-ECECF1" d="M16.4211 5.77543C15.6812 5.77543 14.9414 5.49389 14.378 4.93081C13.2516 3.80414 13.2516 1.97123 14.378 0.844813C15.5047 -0.281604 17.3376 -0.281604 18.464 0.844813C19.5904 1.97123 19.5904 3.80414 18.464 4.93081C17.9007 5.49389 17.1608 5.77543 16.4211 5.77543Z" fill="#B9DFFC"/>
<path class="p-D3D3D8" d="M16.4209 0V5.77549C17.1605 5.77549 17.9004 5.49395 18.4638 4.93087C19.5902 3.8042 19.5902 1.97129 18.4638 0.844876C17.9004 0.281541 17.1605 0 16.4209 0Z" fill="#A1D1FD"/>
</svg>

<svg width="33" height="32" fill="none" xmlns="http://www.w3.org/2000/svg"><path class="p-7C8388" d="M24.023 28.026l4.003-4.004 4.004 2.106L26.158 32l-2.136-3.974z" fill="#5FBEFF"/><path class="p-575F64" d="M26.158 32l-2.136-3.974 1.934-2.07 3.123 3.123L26.158 32z" fill="#65B3E7"/><path class="p-FDBF00" d="M19.067 23.124c-2.18-2.18-4.932-4.107-7.361-5.808-2.062-1.444-4.01-2.808-5.33-4.13L1.408 8.22a4.823 4.823 0 010-6.81 4.823 4.823 0 016.81 0l4.967 4.968c1.313 1.313 2.724 3.302 4.218 5.407 1.724 2.429 3.677 5.181 5.75 7.254l1.573 1.573-4.087 4.086-1.572-1.573z" fill="#A1D1FD"/><path class="p-FF9100" d="M20.64 24.697l-1.573-1.573c-2.18-2.18-4.932-4.108-7.361-5.809-2.062-1.444-4.01-2.808-5.33-4.129L1.408 8.22a4.823 4.823 0 010-6.81l21.26 21.26-2.029 2.027z" fill="#76B7E2"/><path class="p-575F64" d="M19.277 23.335l4.087-4.086 5.048 5.049-4.086 4.085-5.049-5.048z" fill="#76B7E2"/><path class="p-32393F" d="M24.326 28.383l-5.049-5.049 2.029-2.028 5.048 5.05-2.028 2.027z" fill="#4D98CB"/><path class="p-7C8388" d="M6.762 32L.89 26.128l4.003-2.106 4.004 4.004L6.762 32z" fill="#5FBEFF"/><path class="p-575F64" d="M6.76 32l2.136-3.974-1.933-2.07L3.84 29.08 6.76 32z" fill="#65B3E7"/><path class="p-FFDA2D" d="M12.28 24.696L8.193 20.61l1.573-1.572c2.073-2.073 4.026-4.826 5.75-7.255 1.494-2.105 2.905-4.094 4.218-5.406L24.7 1.409a4.822 4.822 0 016.81 0 4.823 4.823 0 010 6.81l-4.968 4.967c-1.32 1.322-3.268 2.685-5.33 4.13-2.429 1.7-5.181 3.628-7.36 5.808l-1.573 1.572z" fill="#B9DFFC"/><path class="p-FDBF00" d="M12.28 24.697l1.573-1.573c2.18-2.18 4.932-4.108 7.36-5.809 2.062-1.444 4.01-2.808 5.33-4.129l4.969-4.967a4.823 4.823 0 000-6.81l-21.26 21.26 2.028 2.027z" fill="#A1D1FD"/><path class="p-575F64" d="M8.593 28.383l-4.086-4.085 5.048-5.05 4.087 4.087-5.05 5.048z" fill="#76B7E2"/><path class="p-32393F" d="M8.594 28.383l5.048-5.049-2.028-2.028-5.049 5.05 2.029 2.027z" fill="#4D98CB"/><path class="p-ECECF1" d="M16.421 5.775c-.74 0-1.48-.281-2.043-.844a2.893 2.893 0 010-4.086 2.893 2.893 0 014.086 0 2.893 2.893 0 010 4.086 2.88 2.88 0 01-2.043.844z" fill="#B9DFFC"/><path class="p-D3D3D8" d="M16.42 0v5.775c.74 0 1.48-.281 2.044-.844a2.893 2.893 0 000-4.086A2.88 2.88 0 0016.42 0z" fill="#A1D1FD"/></svg>
